icons/church-two-color.svg

<?xml version="1.0" encoding="UTF-8"?><svg id="uuid-81c20c00-5bf4-4f9f-b36d-098639a11093" xmlns="http://www.w3.org/2000/svg" viewBox="0 0 50 50"><path d="M40.47,32.14c-.08-.09-.12-.2-.12-.32l-.03-6.67-13.86-10.43-13.99,10.51v6.5c.01,.12-.03,.23-.11,.32l-5.55,6.57v10.35h5.07s28.87-.02,28.97-.02h5.07v-10.35c-.8-.95-5.43-6.44-5.46-6.48Zm-12.48,15.01l-6.32,.05v-13.35c0-1.74,1.42-3.16,3.16-3.16s3.16,1.42,3.16,3.16v13.3Z" fill="#ffcd00"/><path d="M45.06,36.36s-4.67-5.53-5.46-6.48l-.03-6.06h4.3c.21,0,.4-.14,.47-.34,.07-.2,0-.43-.16-.56L25.1,7.95v-3.07h1.33c.28,0,.5-.22,.5-.5s-.22-.5-.5-.5h-1.33v-1.61c0-.28-.22-.5-.5-.5s-.5,.22-.5,.5v1.61h-1.33c-.28,0-.5,.22-.5,.5s.22,.5,.5,.5h1.33v3.25L5.25,22.93c-.17,.13-.23,.35-.16,.56,.07,.2,.26,.34,.47,.34h4.16v5.99l-5.54,6.57c-.08,.09-.12,.2-.12,.32v11.03c0,.28,.22,.5,.5,.5h30.02c2.48-.01,3.73-.02,4.36-.08,.05,.02,.1,.04,.16,.04v.02h5.57c.28,0,.5-.22,.5-.5v-11.03c0-.12-.04-.23-.12-.32ZM24.72,8.91l17.71,13.91h-3s-.03-.05-.05-.06l-9.26-6.97-5.03-3.91c-.18-.14-.43-.14-.61,0l-10.09,7.63-4.43,3.33h-2.94L24.72,8.91ZM5.07,36.89l4.67-5.53,.02,15.88H5.07v-10.35Zm16.6,10.32v-13.35c0-1.74,1.42-3.16,3.16-3.16s3.16,1.42,3.16,3.16v13.3l-6.32,.05Zm7.32,.02v-13.37c0-2.29-1.87-4.16-4.16-4.16s-4.16,1.87-4.16,4.16v13.38c-4.5,0-8.44,0-9.91,0l-.03-17.1s-.01-.05-.01-.07c0-.03,.01-.05,.01-.08v-6.48l4.21-3.19,9.77-7.34,4.79,3.61,9.07,7.05,.03,6.44s0,.02,0,.03c0,.01,0,.02,0,.04l.07,17.08c-1.26,0-5.16,0-9.68,0Zm15.2,0h-4.51l-.06-15.78c1.39,1.65,3.99,4.73,4.58,5.43v10.35Z"/></svg>

<svg id="ac2efe16-4fb4-4613-bc26-f9a25bb47d1a" data-name="ICONS" xmlns="http://www.w3.org/2000/svg" viewBox="0 0 50 50"><path d="M40.47,32.14a.47.47,0,0,1-.12-.32l0-6.66L26.46,14.73l-14,10.51v6.5a.47.47,0,0,1-.12.32L6.82,38.64V49h5.07l29,0h5.07V38.62ZM28,47.16l-6.31.05V33.85a3.16,3.16,0,0,1,6.31,0Z" fill="#fdd600"/><path d="M45.06,36.36,39.6,29.89l0-6.07h4.3a.5.5,0,0,0,.47-.33.51.51,0,0,0-.16-.56L25.1,8V4.87h1.33a.5.5,0,0,0,.5-.5.5.5,0,0,0-.5-.5H25.1V2.26a.5.5,0,0,0-.5-.5.51.51,0,0,0-.5.5V3.87H22.78a.5.5,0,0,0-.5.5.5.5,0,0,0,.5.5H24.1V8.12L5.25,22.93a.51.51,0,0,0-.16.56.5.5,0,0,0,.47.33H9.72v6L4.19,36.38a.47.47,0,0,0-.12.32v11a.5.5,0,0,0,.5.5h5.57l24.45,0c2.48,0,3.72,0,4.36-.06a.43.43,0,0,0,.16.05h5.57a.5.5,0,0,0,.5-.5v-11A.5.5,0,0,0,45.06,36.36ZM24.72,8.91l17.7,13.91h-3s0-.05-.05-.06l-9.26-7-5-3.92a.5.5,0,0,0-.61,0l-10.1,7.62L10,22.82H7Zm-19.65,28,4.67-5.54,0,15.89H5.07Zm16.6,10.32V33.85a3.16,3.16,0,0,1,6.31,0V47.16Zm7.31,0V33.85a4.16,4.16,0,0,0-8.31,0V47.23H10.76l0-17.1s0-.05,0-.07,0-.05,0-.08V23.51l4.22-3.19L24.71,13l4.8,3.61,9.06,7.05,0,6.44a.06.06,0,0,0,0,0,0,0,0,0,0,0,0l.07,17.08Zm15.2,0H39.67L39.6,31.44l4.58,5.43Z" fill="#231f20"/></svg>
